X: 12
T:Down the Glen
% Nottingham Music Database
S:McCusker Brothers
M:4/4
L:1/8
R:Hornpipe
K:D
P:A
A2|"D"DDFA "G"BA(3Bcd|"D"DDFA d2(3cd^d|"A"eAce "D"fe(3f^ga|
"Em"(3efe(3dcB "A7"(3ABA(3GFG|"D"ADFA "G"BA(3Bcd|
"D"DDFA d2(3cd^d|"A"eAce "D"faec|"A7"dedc "D"d2:|
P:B
(3cd^d|"A"eAce "D"fe(3f^ga|"A"eAce "D"fe(3f^ga|
"A"ea^gf "E7"edcB|"A"(3Ace(3aec "A7"A2G2|"D"(3FEDFA dfaf|
"G"gBdg bbag|"D"(3fafdf "A"edce|"D"df(3edc d2:|<end>
<start>
